!!!OTL: NOCH EINMAL ROBERT
!!!ARE: Europa, Mitteleuropa, Deutschland
!!!SCT: B0495
!!!YEM: Copyright 1995, estate of Helmut Schaffrath.
**kern
*ICvox
*Ivox
*M4/4
*k[f#c#]
*D:
{8F#
8F#
8G
=1
8B
8A
4A
8A
8B
8c#
8d
=2
8d
8B
4B
8r}
{8B
8G
8E
=3
8B
8A
4A
4.G
8A
=4
4G
4F#
8r}
{8F#
8F#
8G
=5
8B
8A
4A
8A
8B
8c#
8d
=6
8d
8B
4B
8r}
{8B
8G
8E
=7
8B
8A
4A
4G
8B
8c#
=8
2d
8r}
{8A
8G
8F#
=9
8F#
8E
4E
4.e
16c#
16A
=10
8A
8d
4d
4r}
{4cn
=11
4.B
8B
8.e
16e
8.e
16d
=12
2c#
4r}
{4A
=13
4.d
8A
8A
8B
8c#
8d
=14
8d
8B
4B
8r}
{8B
8G
8E
=15
8B
8A
4A
4A
8B
8c#
=16
2d
8r}
==
!!!AGN: Abschieds - Lied
!!!ONB: ESAC (Essen Associative Code) Database: BOEHME
!!!AMT: simple quadruple
!!!AIN: vox
!!!EED: Helmut Schaffrath
!!!EEV: 1.0
*-
